Dominus_Dark_Funeral/scalable/actions/document-print-preview.svg

<svg xmlns="http://www.w3.org/2000/svg" width="24" height="24"><path fill="#e6e6e6" d="M5.216.61a.093.093 0 0 0-.094.093v3.813c0 .052.042.094.094.094H17.03a.093.093 0 0 0 .093-.094V.703A.093.093 0 0 0 17.03.61zm-4 5.101a.093.093 0 0 0-.094.094v8.71c0 .053.042.095.094.095H5.23v-.564h9.086a2.985 2.97 0 0 1 2.926-2.387 2.985 2.97 0 0 1 2.983 2.95h.871a.093.093 0 0 0 .094-.093V5.805a.093.093 0 0 0-.094-.094zm19.009 8.899h-3.089v2.982a2.985 2.97 0 0 0 .106.005 2.985 2.97 0 0 0 2.984-2.969 2.985 2.97 0 0 0-.001-.018zm-3.089 2.982a2.985 2.97 0 0 1-2.879-2.964 2.985 2.97 0 0 1 .001-.018H5.23v3.964h11.906zm-2.878-2.982h2.878v-.564h-2.82a2.985 2.97 0 0 0-.058.564zm3.462-7.576a1.386 1.386 0 0 1 1.386 1.385 1.386 1.386 0 0 1-1.386 1.386 1.386 1.386 0 0 1-1.386-1.386 1.386 1.386 0 0 1 1.386-1.385z" paint-order="markers fill stroke"/><path fill="none" stroke="#e6e6e6" stroke-linecap="square" stroke-miterlimit="1.5" stroke-width="1.516" d="M18.826 17.273l.089-.05 2.958 5.22-.088.05z" paint-order="markers fill stroke"/></svg>

<?xml version="1.0" encoding="UTF-8" standalone="no"?>
<svg
   xmlns:dc="http://purl.org/dc/elements/1.1/"
   xmlns:cc="http://creativecommons.org/ns#"
   xmlns:rdf="http://www.w3.org/1999/02/22-rdf-syntax-ns#"
   xmlns:svg="http://www.w3.org/2000/svg"
   xmlns="http://www.w3.org/2000/svg"
   xmlns:sodipodi="http://sodipodi.sourceforge.net/DTD/sodipodi-0.dtd"
   xmlns:inkscape="http://www.inkscape.org/namespaces/inkscape"
   width="24"
   height="24"
   version="1.1"
   id="svg6"
   sodipodi:docname="document-print-preview.svg"
   inkscape:version="0.92.4 (5da689c313, 2019-01-14)">
  <metadata
     id="metadata12">
    <rdf:RDF>
      <cc:Work
         rdf:about="">
        <dc:format>image/svg+xml</dc:format>
        <dc:type
           rdf:resource="http://purl.org/dc/dcmitype/StillImage" />
        <dc:title></dc:title>
      </cc:Work>
    </rdf:RDF>
  </metadata>
  <defs
     id="defs10" />
  <sodipodi:namedview
     pagecolor="#ffffff"
     bordercolor="#666666"
     borderopacity="1"
     objecttolerance="10"
     gridtolerance="10"
     guidetolerance="10"
     inkscape:pageopacity="0"
     inkscape:pageshadow="2"
     inkscape:window-width="1112"
     inkscape:window-height="480"
     id="namedview8"
     showgrid="false"
     inkscape:zoom="9.8333333"
     inkscape:cx="1.0677966"
     inkscape:cy="12"
     inkscape:window-x="0"
     inkscape:window-y="25"
     inkscape:window-maximized="0"
     inkscape:current-layer="svg6" />
  <path
     d="M 5.216,0.61 A 0.093,0.093 0 0 0 5.122,0.703 v 3.813 c 0,0.052 0.042,0.094 0.094,0.094 H 17.03 A 0.093,0.093 0 0 0 17.123,4.516 V 0.703 A 0.093,0.093 0 0 0 17.03,0.61 Z m -4,5.101 A 0.093,0.093 0 0 0 1.122,5.805 v 8.71 c 0,0.053 0.042,0.095 0.094,0.095 H 5.23 v -0.564 h 9.086 a 2.985,2.97 0 0 1 2.926,-2.387 2.985,2.97 0 0 1 2.983,2.95 h 0.871 A 0.093,0.093 0 0 0 21.19,14.516 V 5.805 A 0.093,0.093 0 0 0 21.096,5.711 Z m 19.009,8.899 h -3.089 v 2.982 a 2.985,2.97 0 0 0 0.106,0.005 2.985,2.97 0 0 0 2.984,-2.969 2.985,2.97 0 0 0 -10e-4,-0.018 z m -3.089,2.982 A 2.985,2.97 0 0 1 14.257,14.628 2.985,2.97 0 0 1 14.258,14.61 H 5.23 v 3.964 H 17.136 Z M 14.258,14.61 h 2.878 v -0.564 h -2.82 A 2.985,2.97 0 0 0 14.258,14.61 Z M 17.72,7.034 A 1.386,1.386 0 0 1 19.106,8.419 1.386,1.386 0 0 1 17.72,9.805 1.386,1.386 0 0 1 16.334,8.419 1.386,1.386 0 0 1 17.72,7.034 Z"
     id="path2"
     inkscape:connector-curvature="0"
     style="fill:#e6e6e6;paint-order:markers fill stroke" />
  <path
     stroke-miterlimit="1.5"
     d="m 18.826,17.273 0.089,-0.05 2.958,5.22 -0.088,0.05 z"
     id="path4"
     inkscape:connector-curvature="0"
     style="fill:none;stroke:#e6e6e6;stroke-width:1.51600003;stroke-linecap:square;stroke-miterlimit:1.5;paint-order:markers fill stroke" />
</svg>
